svg/file_search_outline.svg

<svg xmlns="http://www.w3.org/2000/svg" viewBox="0 0 24 24"><path d="M14 2H6a2 2 0 0 0-2 2v16a2 2 0 0 0 2 2h7c-.41-.25-.8-.56-1.14-.9-.33-.33-.61-.7-.86-1.1H6V4h7v5h5v1.18c.71.16 1.39.43 2 .82V8zm6.31 16.9c1.33-2.11.69-4.9-1.4-6.22-2.11-1.33-4.91-.68-6.22 1.4-1.34 2.11-.69 4.89 1.4 6.22 1.46.93 3.32.93 4.79.02L22 23.39 23.39 22zm-3.81.1a2.5 2.5 0 0 1-2.5-2.5 2.5 2.5 0 0 1 2.5-2.5 2.5 2.5 0 0 1 2.5 2.5 2.5 2.5 0 0 1-2.5 2.5"/></svg>

<?xml version="1.0" encoding="UTF-8"?><!DOCTYPE svg PUBLIC "-//W3C//DTD SVG 1.1//EN" "http://www.w3.org/Graphics/SVG/1.1/DTD/svg11.dtd"><svg xmlns="http://www.w3.org/2000/svg" xmlns:xlink="http://www.w3.org/1999/xlink" version="1.1" id="mdi-file-search-outline" width="24" height="24" viewBox="0 0 24 24"><path d="M14,2H6A2,2 0 0,0 4,4V20A2,2 0 0,0 6,22H13C12.59,21.75 12.2,21.44 11.86,21.1C11.53,20.77 11.25,20.4 11,20H6V4H13V9H18V10.18C18.71,10.34 19.39,10.61 20,11V8L14,2M20.31,18.9C21.64,16.79 21,14 18.91,12.68C16.8,11.35 14,12 12.69,14.08C11.35,16.19 12,18.97 14.09,20.3C15.55,21.23 17.41,21.23 18.88,20.32L22,23.39L23.39,22L20.31,18.9M16.5,19A2.5,2.5 0 0,1 14,16.5A2.5,2.5 0 0,1 16.5,14A2.5,2.5 0 0,1 19,16.5A2.5,2.5 0 0,1 16.5,19Z" /></svg>
